X: 31065
T: Paddy Cronin's
R: reel
M: 4/4
K: Dmajor
d2fd Adfd|(3ddd fa gecA|d2fd Adfd|eA (3Bcd egfe:|
(3aaa ab afdf|a2af gece|(3aaa ab afdf|eA (3Bcd egfe|
(3aaa ab afdf|a2af gece|afge fdec|A2 (3Bcd egfe||d4|

